images/client-logo-1.svg

<svg width="219" height="48" viewBox="0 0 219 48" fill="none" xmlns="http://www.w3.org/2000/svg">
<g clip-path="url(#clip0_1058_370)">
<path fill-rule="evenodd" clip-rule="evenodd" d="M23.2701 5.63966L26.3584 0.273438L35.1137 5.34591L32.0266 10.711C31.4844 11.6521 32.2959 12.7966 33.3593 12.591L39.2758 11.4453L41.1906 21.4058L35.2741 22.5503C25.7037 24.4021 18.3971 14.1091 23.2701 5.63966Z" fill="#0E384C"/>
<path fill-rule="evenodd" clip-rule="evenodd" d="M17.9205 41.9063L14.8323 47.2726L6.07579 42.2013L9.16404 36.835C9.70627 35.8939 8.89468 34.7494 7.83013 34.955L1.91479 36.0995L0 26.1402L5.91651 24.9957C15.4869 23.1439 22.7924 33.4369 17.9205 41.9063Z" fill="#0E384C"/>
<path fill-rule="evenodd" clip-rule="evenodd" d="M18.1877 5.63966L15.1006 0.273438L6.34415 5.34591L9.4324 10.711C9.97346 11.6521 9.16304 12.7966 8.09849 12.591L2.18197 11.4453L0.269531 21.4058L6.18487 22.5503C15.7565 24.4021 23.0631 14.1091 18.1889 5.63966H18.1877Z" fill="#0E384C"/>
<path fill-rule="evenodd" clip-rule="evenodd" d="M23.0122 41.9063L26.0981 47.2726L34.8546 42.2013L31.7664 36.835C31.2253 35.8939 32.0357 34.7494 33.1003 34.955L39.0156 36.0995L40.9304 26.1402L35.0139 24.9957C25.4435 23.1439 18.138 33.4369 23.0099 41.9063H23.0122Z" fill="#0E384C"/>
<path d="M191.027 35.7024V25.7149C191.027 24.3308 191.344 23.0888 191.979 21.9902C192.636 20.8692 193.567 19.9903 194.772 19.3523C195.977 18.7155 197.412 18.397 199.076 18.397C199.852 18.3894 200.626 18.4891 201.376 18.6931C202.077 18.8694 202.712 19.122 203.281 19.451C203.873 19.7589 204.376 20.1325 204.793 20.572H204.859C205.305 20.1262 205.814 19.7486 206.37 19.451C206.98 19.114 207.632 18.8592 208.309 18.6931C209.07 18.4905 209.855 18.391 210.642 18.397C212.306 18.397 213.741 18.7143 214.946 19.3523C216.15 19.9903 217.081 20.8681 217.738 21.9902C218.396 23.0888 218.724 24.3296 218.724 25.7149V35.7024H213.598V25.8794C213.598 25.3307 213.456 24.836 213.172 24.3966C212.91 23.9369 212.537 23.5513 212.087 23.2756C211.612 22.9858 211.065 22.8371 210.51 22.8468C209.918 22.8468 209.382 22.9901 208.9 23.2756C208.45 23.5509 208.077 23.9367 207.816 24.3966C207.55 24.8447 207.414 25.358 207.421 25.8794V35.7024H202.329V25.8794C202.329 25.3307 202.186 24.836 201.902 24.3966C201.635 23.9303 201.249 23.5435 200.785 23.2756C200.31 22.9858 199.763 22.8371 199.207 22.8468C198.616 22.8468 198.079 22.9901 197.598 23.2756C197.148 23.5509 196.774 23.9367 196.513 24.3966C196.248 24.845 196.112 25.3581 196.119 25.8794V35.7024H191.027ZM179.888 36.0984C178.158 36.0984 176.657 35.7694 175.388 35.1091C174.139 34.4276 173.175 33.5158 172.496 32.3737C171.817 31.2092 171.477 29.9226 171.477 28.5161V18.7918H176.57V28.3845C176.57 28.9779 176.712 29.5278 176.997 30.0331C177.281 30.516 177.665 30.912 178.147 31.2198C178.65 31.5053 179.221 31.6487 179.855 31.6487C180.469 31.6487 181.016 31.5053 181.499 31.2198C182.002 30.912 182.397 30.516 182.681 30.0331C182.966 29.5278 183.109 28.9779 183.109 28.3845V18.7918H188.201V28.5161C188.201 29.9226 187.872 31.2092 187.215 32.3737C186.558 33.5158 185.606 34.4287 184.357 35.1091C183.13 35.7682 181.64 36.0984 179.888 36.0984ZM155.073 35.7024V31.6487H163.189C163.408 31.6487 163.605 31.604 163.781 31.5159C163.955 31.4066 164.098 31.2633 164.207 31.0882C164.314 30.915 164.371 30.7152 164.371 30.5113C164.371 30.3074 164.314 30.1075 164.207 29.9344C164.105 29.7649 163.957 29.6277 163.781 29.5384C163.603 29.428 163.398 29.371 163.189 29.3739H160.232C159.136 29.3739 158.139 29.1976 157.242 28.8463C156.39 28.4921 155.659 27.8964 155.139 27.132C154.635 26.3412 154.383 25.319 154.383 24.0664C154.383 23.0994 154.613 22.2205 155.073 21.4297C155.552 20.6414 156.218 19.9842 157.011 19.5168C157.84 19.0346 158.782 18.7842 159.739 18.7918H167.854V22.8797H160.527C160.236 22.8738 159.954 22.9802 159.739 23.1769C159.643 23.2711 159.567 23.384 159.516 23.5087C159.465 23.6334 159.44 23.7672 159.443 23.9019C159.443 24.2098 159.542 24.473 159.739 24.6927C159.954 24.8894 160.236 24.9958 160.527 24.99H163.419C164.645 24.99 165.697 25.1768 166.573 25.5493C167.471 25.9018 168.161 26.4728 168.643 27.2648C169.147 28.0555 169.398 29.0766 169.398 30.3292C169.398 31.3185 169.147 32.2197 168.643 33.0317C168.165 33.841 167.485 34.5116 166.671 34.9775C165.861 35.4616 164.941 35.7024 163.912 35.7024H155.073ZM143.978 18.397C145.402 18.397 146.661 18.6273 147.756 19.0891C148.832 19.5005 149.799 20.1546 150.582 21.0008C151.381 21.8299 151.996 22.8184 152.389 23.9019C152.805 25.0005 153.013 26.2202 153.013 27.5609C153.013 29.2305 152.663 30.7146 151.962 32.0106C151.314 33.2527 150.336 34.2908 149.137 35.0104C147.932 35.7353 146.53 36.0984 144.931 36.0984C144.252 36.0984 143.606 36.0103 142.992 35.8352C142.411 35.6638 141.858 35.408 141.35 35.0762C140.872 34.7505 140.459 34.3366 140.134 33.8565H140.035V42.857H134.943V27.5597C134.943 25.6914 135.315 24.0758 136.06 22.714C136.782 21.3735 137.878 20.2734 139.214 19.5485C140.572 18.7801 142.16 18.3959 143.978 18.3959V18.397ZM143.978 22.8139C143.19 22.8139 142.5 23.0113 141.909 23.4072C141.338 23.7809 140.9 24.3085 140.594 24.99C140.288 25.648 140.134 26.3964 140.134 27.2307C140.134 28.0661 140.288 28.8134 140.594 29.4726C140.9 30.1318 141.338 30.6593 141.909 31.0553C142.5 31.429 143.19 31.6158 143.978 31.6158C144.766 31.6158 145.445 31.4278 146.015 31.0553C146.587 30.6565 147.042 30.1096 147.33 29.4726C147.658 28.8134 147.822 28.0661 147.822 27.2307C147.822 26.3964 147.658 25.6491 147.33 24.99C147.023 24.3085 146.585 23.7797 146.015 23.4072C145.445 23.0113 144.766 22.8139 143.978 22.8139ZM127.204 35.7024V18.7918H132.33V35.7024H127.204ZM129.766 16.8801C128.956 16.8801 128.256 16.584 127.664 15.9906C127.073 15.3973 126.777 14.6934 126.777 13.8803C126.777 13.0672 127.073 12.3646 127.664 11.7712C128.256 11.1555 128.956 10.8477 129.766 10.8477C130.577 10.8477 131.278 11.1555 131.87 11.7712C132.461 12.3646 132.756 13.0672 132.756 13.8803C132.756 14.6934 132.461 15.3961 131.87 15.9906C131.278 16.584 130.577 16.8801 129.766 16.8801ZM116.064 36.0984C114.335 36.0984 112.779 35.7142 111.399 34.9446C110.044 34.1996 108.911 33.1078 108.114 31.7803C107.325 30.4396 106.931 28.9344 106.931 27.2636C106.931 25.5716 107.325 24.0664 108.114 22.7481C108.911 21.4206 110.044 20.3287 111.399 19.5838C112.779 18.7918 114.335 18.397 116.064 18.397C117.795 18.397 119.339 18.7918 120.697 19.5838C122.047 20.3235 123.171 21.4172 123.95 22.7481C124.76 24.0664 125.165 25.5716 125.165 27.2636C125.165 28.9344 124.76 30.4396 123.95 31.7803C123.171 33.1111 122.047 34.2048 120.697 34.9446C119.318 35.7142 117.773 36.0984 116.064 36.0984ZM116.064 31.6487C116.875 31.6487 117.576 31.4501 118.168 31.0553C118.759 30.6598 119.235 30.1135 119.547 29.4726C119.876 28.8134 120.04 28.0661 120.04 27.2307C120.04 26.4176 119.876 25.682 119.547 25.0217C119.235 24.3811 118.759 23.8353 118.168 23.4401C117.576 23.0442 116.875 22.8468 116.064 22.8468C115.254 22.8468 114.542 23.0442 113.929 23.4401C113.338 23.8357 112.861 24.3819 112.549 25.0229C112.214 25.7102 112.045 26.467 112.057 27.2319C112.057 28.0661 112.221 28.8134 112.549 29.4726C112.861 30.1135 113.338 30.6597 113.929 31.0553C114.542 31.4501 115.254 31.6487 116.064 31.6487ZM90.3805 42.3952V38.0101H98.7903C99.1194 38.0101 99.3934 37.9009 99.6124 37.6811C99.7192 37.5865 99.8039 37.4694 99.8606 37.3382C99.9172 37.207 99.9445 37.065 99.9403 36.9221V33.1973H99.8419C99.4259 33.6827 98.9515 34.1145 98.4296 34.4828C97.9471 34.8353 97.399 35.0985 96.7865 35.2747C96.1346 35.4585 95.4598 35.5471 94.7827 35.5379C93.293 35.5379 91.9568 35.1854 90.7739 34.4828C89.6134 33.7578 88.6929 32.7579 88.0136 31.483C87.3578 30.2093 87.0287 28.7582 87.0287 27.132C87.0287 25.5281 87.3683 24.0664 88.0476 22.7481C88.7479 21.4297 89.7668 20.3746 91.103 19.5838C92.4381 18.7918 94.0707 18.397 95.9983 18.397C97.8382 18.397 99.4262 18.7813 100.762 19.5509C102.104 20.2816 103.201 21.3934 103.916 22.7469C104.661 24.1099 105.034 25.7149 105.034 27.5609V37.4497C105.034 38.9654 104.585 40.1639 103.687 41.0428C102.811 41.944 101.595 42.3941 100.04 42.3941L90.3805 42.3952ZM96.0311 31.2527C96.8193 31.2527 97.4985 31.0765 98.0689 30.7251C98.6316 30.3585 99.0852 29.8462 99.3817 29.2423C99.6932 28.6066 99.8509 27.9061 99.8419 27.1978C99.8419 26.407 99.6897 25.682 99.3829 25.0229C99.076 24.3637 98.638 23.8467 98.0677 23.473C97.4985 23.0771 96.8193 22.8797 96.0299 22.8797C95.264 22.8797 94.5848 23.0665 93.9934 23.4401C93.4242 23.8138 92.9862 24.319 92.6794 24.9559C92.3737 25.5939 92.2203 26.3071 92.2203 27.0991C92.2203 27.8687 92.3725 28.5714 92.6794 29.2094C92.9862 29.8239 93.4242 30.3186 93.9945 30.6922C94.5848 31.0659 95.264 31.2527 96.0311 31.2527ZM76.6771 36.0984C74.9474 36.0984 73.3921 35.7142 72.0126 34.9446C70.6576 34.1999 69.5236 33.108 68.7264 31.7803C67.9382 30.4396 67.5435 28.9344 67.5435 27.2636C67.5435 25.5716 67.9382 24.0664 68.7264 22.7481C69.5236 21.4203 70.6576 20.3285 72.0126 19.5838C73.3921 18.7918 74.9474 18.397 76.6771 18.397C78.4081 18.397 79.9516 18.7918 81.3101 19.5838C82.6597 20.3236 83.7838 21.4173 84.5623 22.7481C85.3727 24.0664 85.7779 25.5716 85.7779 27.2636C85.7779 28.9344 85.3727 30.4396 84.5623 31.7803C83.7838 33.111 82.6597 34.2047 81.3101 34.9446C79.9305 35.7142 78.3858 36.0984 76.6771 36.0984ZM76.6771 31.6487C77.4876 31.6487 78.1879 31.4501 78.7805 31.0553C79.3718 30.6595 79.8479 30.1133 80.1601 29.4726C80.488 28.8134 80.6519 28.0661 80.6519 27.2307C80.6519 26.4176 80.488 25.682 80.1601 25.0217C79.8478 24.3813 79.3717 23.8356 78.7805 23.4401C78.1891 23.0442 77.4876 22.8468 76.6771 22.8468C75.8667 22.8468 75.1547 23.0442 74.5422 23.4401C73.9503 23.8357 73.4738 24.3819 73.1614 25.0229C72.8268 25.7102 72.6583 26.467 72.6696 27.2319C72.6696 28.0661 72.8335 28.8134 73.1614 29.4726C73.4739 30.1135 73.9504 30.6597 74.5422 31.0553C75.1547 31.4501 75.8667 31.6487 76.6771 31.6487ZM60.3681 35.7024C58.944 35.7024 57.6956 35.3852 56.6228 34.7472C55.5795 34.1402 54.7173 33.2638 54.126 32.2092C53.5346 31.154 53.2383 29.9884 53.2383 28.7147V12.6278H58.7578V29.1095C58.7578 29.6383 58.9452 30.0989 59.3164 30.4948C59.6888 30.8896 60.1479 31.0882 60.696 31.0882H66.7741V35.7024H60.3681Z" fill="#0E384C"/>
</g>
<defs>
<clipPath id="clip0_1058_370">
<rect width="219" height="47" fill="white" transform="translate(0 0.273438)"/>
</clipPath>
</defs>
</svg>

<svg xmlns="http://www.w3.org/2000/svg" width="219" height="48" fill="none" viewBox="0 0 219 48"><g fill="#0e384c" clip-path="url(#a)"><path fill-rule="evenodd" d="M23.27 5.64 26.358.273l8.756 5.073-3.087 5.365c-.543.941.269 2.086 1.332 1.88l5.917-1.146 1.915 9.96-5.917 1.145c-9.57 1.852-16.877-8.44-12.004-16.91m-5.35 36.266-3.088 5.367L6.076 42.2l3.088-5.366c.542-.941-.27-2.086-1.334-1.88L1.915 36.1 0 26.14l5.917-1.144c9.57-1.852 16.875 8.44 12.004 16.91m.267-36.266L15.1.273 6.344 5.346l3.088 5.365c.541.941-.269 2.086-1.334 1.88l-5.916-1.146-1.912 9.96 5.915 1.145c9.572 1.852 16.878-8.44 12.004-16.91zm4.824 36.266 3.086 5.367 8.757-5.072-3.089-5.366c-.54-.941.27-2.086 1.334-1.88l5.916 1.145 1.914-9.96-5.916-1.144c-9.57-1.852-16.876 8.44-12.004 16.91z" clip-rule="evenodd"/><path d="M191.027 35.702v-9.987q0-2.076.952-3.725.986-1.68 2.793-2.638 1.808-.955 4.304-.955a8.5 8.5 0 0 1 2.3.296 7.4 7.4 0 0 1 1.905.758 5.7 5.7 0 0 1 1.512 1.121h.066a6.4 6.4 0 0 1 1.511-1.121 8 8 0 0 1 1.939-.758 8.8 8.8 0 0 1 2.333-.296q2.496-.001 4.304.955 1.806.956 2.792 2.638.987 1.648.986 3.725v9.987h-5.126V25.88q0-.823-.426-1.482a3.1 3.1 0 0 0-1.085-1.121 2.93 2.93 0 0 0-1.577-.43q-.888 0-1.61.43c-.45.275-.823.66-1.084 1.12a2.83 2.83 0 0 0-.395 1.483v9.823h-5.092V25.88q0-.823-.427-1.482a3.04 3.04 0 0 0-1.117-1.121 2.93 2.93 0 0 0-1.578-.43q-.887 0-1.609.43a3.1 3.1 0 0 0-1.085 1.12 2.84 2.84 0 0 0-.394 1.483v9.823zm-11.139.396q-2.596 0-4.5-.989-1.873-1.022-2.892-2.735-1.019-1.747-1.019-3.858v-9.724h5.093v9.592a3.3 3.3 0 0 0 .427 1.65q.427.723 1.15 1.186a3.4 3.4 0 0 0 1.708.429q.92 0 1.644-.43a3.4 3.4 0 0 0 1.182-1.186 3.3 3.3 0 0 0 .428-1.649v-9.592h5.092v9.724q0 2.11-.986 3.858-.985 1.714-2.858 2.735-1.84.99-4.469.99m-24.815-.396V31.65h8.116q.328 0 .592-.133a1.3 1.3 0 0 0 .426-.428 1.1 1.1 0 0 0-.426-1.55 1.1 1.1 0 0 0-.592-.164h-2.957q-1.644 0-2.99-.528a4.75 4.75 0 0 1-2.103-1.714q-.756-1.186-.756-3.066 0-1.45.69-2.636a5.6 5.6 0 0 1 1.938-1.913 5.34 5.34 0 0 1 2.728-.725h8.115v4.088h-7.327c-.291-.006-.573.1-.788.297a1 1 0 0 0-.296.725q0 .462.296.79c.215.197.497.304.788.298h2.892q1.84 0 3.154.56 1.347.527 2.07 1.715.755 1.185.755 3.064 0 1.484-.755 2.703a5.4 5.4 0 0 1-1.972 1.946q-1.215.725-2.759.724zm-11.095-17.305q2.136 0 3.778.692a7.5 7.5 0 0 1 2.826 1.912 8.2 8.2 0 0 1 1.807 2.9q.624 1.65.624 3.66 0 2.506-1.051 4.45a7.6 7.6 0 0 1-2.825 3q-1.808 1.087-4.206 1.087a7 7 0 0 1-1.939-.263 6.2 6.2 0 0 1-1.642-.759 4.6 4.6 0 0 1-1.216-1.22h-.099v9.001h-5.092V27.56q0-2.803 1.117-4.846a7.8 7.8 0 0 1 3.154-3.165q2.037-1.153 4.764-1.153zm0 4.417q-1.182 0-2.069.593-.856.56-1.315 1.583-.46.988-.46 2.24t.46 2.243q.459.988 1.315 1.582.887.56 2.069.56t2.037-.56a3.9 3.9 0 0 0 1.315-1.582q.492-.99.492-2.242t-.492-2.241q-.46-1.023-1.315-1.583-.855-.594-2.037-.593m-16.774 12.888v-16.91h5.126v16.91zm2.562-18.822q-1.214 0-2.102-.89t-.887-2.11q0-1.219.887-2.109.888-.923 2.102-.923 1.216 0 2.104.923.886.89.886 2.11 0 1.218-.886 2.11-.888.89-2.104.89M116.064 36.1q-2.594 0-4.665-1.153a8.75 8.75 0 0 1-3.285-3.165q-1.183-2.01-1.183-4.516 0-2.539 1.183-4.516a8.75 8.75 0 0 1 3.285-3.164q2.07-1.187 4.665-1.187t4.633 1.187a8.5 8.5 0 0 1 3.253 3.164q1.215 1.977 1.215 4.516 0 2.505-1.215 4.516a8.5 8.5 0 0 1-3.253 3.165q-2.069 1.154-4.633 1.153m0-4.45q1.216 0 2.104-.593a4 4 0 0 0 1.379-1.582q.493-.99.493-2.242 0-1.219-.493-2.21a4 4 0 0 0-1.379-1.58q-.888-.595-2.104-.594-1.215 0-2.135.593a4 4 0 0 0-1.38 1.583 4.9 4.9 0 0 0-.492 2.209q0 1.251.492 2.24a4 4 0 0 0 1.38 1.583q.92.593 2.135.594M90.381 42.396V38.01h8.41q.492 0 .821-.329a.97.97 0 0 0 .328-.759v-3.725h-.098a7.7 7.7 0 0 1-1.412 1.286 5.2 5.2 0 0 1-1.644.792 7 7 0 0 1-2.003.263q-2.234-.001-4.01-1.055-1.74-1.088-2.76-3-.983-1.912-.984-4.351 0-2.407 1.019-4.384 1.05-1.977 3.055-3.164 2.003-1.187 4.895-1.187 2.76 0 4.764 1.154a7.77 7.77 0 0 1 3.154 3.196q1.118 2.045 1.118 4.814v9.889q0 2.273-1.347 3.593-1.314 1.351-3.647 1.351zm5.65-11.142q1.183 0 2.038-.528a3.73 3.73 0 0 0 1.313-1.483 4.5 4.5 0 0 0 .46-2.044 5.1 5.1 0 0 0-.46-2.175 3.64 3.64 0 0 0-1.314-1.55q-.855-.593-2.038-.593-1.149 0-2.037.56a3.7 3.7 0 0 0-1.314 1.516q-.458.956-.459 2.143 0 1.154.46 2.11.459.923 1.314 1.483.886.56 2.037.56m-19.354 4.845q-2.595 0-4.664-1.153a8.75 8.75 0 0 1-3.287-3.165q-1.183-2.01-1.183-4.516 0-2.539 1.183-4.516a8.75 8.75 0 0 1 3.287-3.164q2.07-1.187 4.664-1.187 2.596 0 4.633 1.187a8.5 8.5 0 0 1 3.252 3.164q1.215 1.977 1.216 4.516 0 2.505-1.216 4.516a8.5 8.5 0 0 1-3.252 3.165q-2.07 1.154-4.633 1.153m0-4.45q1.214 0 2.103-.593a4 4 0 0 0 1.38-1.582q.492-.99.492-2.242 0-1.219-.492-2.21a4 4 0 0 0-1.38-1.58q-.886-.595-2.103-.594-1.215 0-2.135.593a4 4 0 0 0-1.38 1.583 4.9 4.9 0 0 0-.492 2.209q0 1.251.491 2.24c.313.641.79 1.188 1.381 1.583q.92.593 2.135.594m-16.309 4.054q-2.136.001-3.745-.955a6.76 6.76 0 0 1-2.497-2.538q-.887-1.583-.888-3.494V12.628h5.52V29.11q0 .791.558 1.385a1.82 1.82 0 0 0 1.38.593h6.078v4.614z"/></g><defs><clipPath id="a"><path fill="#fff" d="M0 .273h219v47H0z"/></clipPath></defs></svg>
